X: 1
T: Far Away
R: waltz
M: 3/4
L: 1/8
K: Bmin
z4 FA |B2 BA Bd |cA F2 FA |B2 BA B3/4c/e3/4 |
c4 dc |B2 BA B3/4c/d3/4 |cB A2 de |fe dc BA |
B3 A FA |B2 BA Bd |cA F2 FA |B2 BA B3/4c/e3/4 |
c4 dc |B2 BA B3/4c/d3/4 |cB A2 de |fe dc BA |
B3 c de |f2 fe f3/4g/a3/4 |ec A2 de |f2 fe f3/4g/a3/4 |
e4 de |fd Be cA |dB Gd BG |F2 B2 BA |
B3 c de |f2 fe f3/4g/a3/4 |ec A2 de |f2 fe f3/4g/a3/4 |
e4 de |fd Be cA |dB Gd BG |F2 B2 BA |
B3 A FA |]


Tune 187	Setting 29219

